X: 18
T:Bell's Favourite
% Nottingham Music Database
S:Don Messer's Way Down East Fiddlin' Tunes, via Phil Rowe
M:6/8
K:D
A|"D"FEF "G"GFG|"D"BAF A2d|"A7"cde ABc|"D"dcB "A7"A2G|
"D"FEF "G"GFG|"D"BAF A2d|"A7"cde ABc|"D"d3 d2::
f|"D"aba fef|"Em"gfg e2d|"A7"cde ABc|"D"dcB "A7"A2f|
"D"aba fef|"Em"gfg e2d|"A7"cde ABc|"D"d3 d2:|


